fs/drink_margarita_24_filled.svg

<svg viewBox="0 0 24 24" fill="none" xmlns="http://www.w3.org/2000/svg" height="1em" width="1em">
  <path d="M20.4897 2.62682C20.5578 3.0354 20.2818 3.42182 19.8732 3.48991L14.3838 4.40481L14.2648 5.00012H18.25C18.6642 5.00012 19 5.33591 19 5.75012V9.75012C19 11.4609 17.6781 12.863 16 12.9907V13.5001C16 15.4529 14.6006 17.0789 12.75 17.4299V20.5001H15.25C15.6642 20.5001 16 20.8359 16 21.2501C16 21.6643 15.6642 22.0001 15.25 22.0001H8.75C8.33579 22.0001 8 21.6643 8 21.2501C8 20.8359 8.33579 20.5001 8.75 20.5001H11.25V17.4299C9.39935 17.0789 8 15.4529 8 13.5001V12.9907C6.32189 12.863 5 11.4609 5 9.75012V5.75012C5 5.33591 5.33579 5.00012 5.75 5.00012H12.735L13.0145 3.60303C13.0756 3.29748 13.3192 3.06155 13.6266 3.01032L19.6266 2.01032C20.0352 1.94223 20.4216 2.21824 20.4897 2.62682ZM11.985 8.75012L12.435 6.50012H6.5V8.75012H11.985ZM17.5 8.75012V6.50012H13.9648L13.5148 8.75012H17.5Z" fill="#212121"/>
</svg>

<svg viewBox="0 0 24 24" fill="none" xmlns="http://www.w3.org/2000/svg" height="1em" width="1em">
  <path d="M20.49 2.627a.75.75 0 0 1-.617.863l-5.49.915-.118.595h3.985a.75.75 0 0 1 .75.75v4a3.25 3.25 0 0 1-3 3.24v.51c0 1.953-1.4 3.579-3.25 3.93v3.07h2.5a.75.75 0 0 1 0 1.5h-6.5a.75.75 0 0 1 0-1.5h2.5v-3.07A4.001 4.001 0 0 1 8 13.5v-.51a3.25 3.25 0 0 1-3-3.24v-4A.75.75 0 0 1 5.75 5h6.985l.28-1.397a.75.75 0 0 1 .612-.593l6-1a.75.75 0 0 1 .863.617ZM11.985 8.75l.45-2.25H6.5v2.25h5.485Zm5.515 0V6.5h-3.535l-.45 2.25H17.5Z" fill="#212121"/>
</svg>
